X:1
T:Title
%%score ( 1 2 ) ( 3 4 )
L:1/8
Q:1/4=88
M:4/4
K:Ab
V:1 treble nm="Grand Piano, Soprano"
V:2 treble 
V:3 bass nm="Choir Pad, Mercy A. Gladwin 1918"
V:4 bass 
V:1
 [CE]2 (3[_C=D][=CE][_DF] [CE]4 | [DF]2 (3[DG][CA][DB] [CA]4 | [EB]2 [EB][Ec] [Ed]3 [Ec] | %3
w: By~Mercy~A.~Gladwin,~1918 * * * *|||
 [EB][EG][EA][EB] [Ec]2 [CA]2 | [Ec]2 [Ec][Ed] [Ae]3 [Ec] | [EB][EA][=DG][DA] [Ec]2 [EB][=Ec] | %6
w: |||
 A2- [_GA]2 [FA]4 | E2 [DE][DE] [CE]4- | [CE]4 z4 |] %9
w: |||
V:2
 x8 | x8 | x8 | x8 | x8 | x8 | F2 z2 z4 | x8 | x8 |] %9
V:3
 [A,,A,]2 (3[A,,A,][A,,A,][A,,A,] [A,,A,]4 | [D,A,]2 (3[B,,B,][E,A,][E,G,] [A,,A,]4 | %2
 [E,G,]2 [E,G,][E,A,] [E,B,]3 [E,A,] | [E,G,][D,B,][C,A,][E,G,] A,2 [A,,A,]2 | %4
 A,2 A,[A,B,] [A,C]3 A, | [G,B,][F,B,][B,,B,][B,,B,] [E,A,]2 [E,G,][C,C] | C4 B,2 z2 | %7
 [C,A,]2 [B,,G,][B,,G,] [A,,A,]4- | [A,,A,]4 z4 |] %9
V:4
 x8 | x8 | x8 | x8 | x8 | x8 | F,2 E,2 D,2- [D,A,]2 | x8 | x8 |] %9

